public/images/FedEx Logo.svg

<svg width="81" height="24" viewBox="0 0 81 24" fill="none" xmlns="http://www.w3.org/2000/svg">
<g clip-path="url(#clip0_2_164)">
<path d="M59.9911 23.2817L66.6627 15.8925L59.9911 8.5022H67.0304L70.3347 12.0919L73.5166 8.5022H80.3104L73.6704 15.862L80.4015 23.2817H73.3333L70.0589 19.6625L66.8154 23.2817H59.9911Z" fill="#FF6600"/>
<path d="M59.991 5.18914H52.4348V8.50217H59.991V13.4952H52.4348V18.0782H59.991V23.2817H46.8811V0H59.991V5.18914Z" fill="#FF6600"/>
<path d="M41.3508 0V9.528H41.2899C40.0656 8.1408 38.5358 7.65874 36.7609 7.65874C33.125 7.65874 30.3863 10.0951 29.4249 13.3162C28.3285 9.76697 25.501 7.59223 21.3083 7.59223C17.9035 7.59223 15.2148 9.09874 13.8117 11.5536V8.50251H6.77374V5.18983H14.4541V0H0.5V23.2821H6.77374V13.4952H13.027C12.8405 14.2142 12.741 14.9839 12.741 15.7961C12.741 20.6527 16.5049 24.0603 21.3083 24.0603C25.3477 24.0603 28.0096 22.1911 29.4176 18.7831H24.0412C23.3139 19.8069 22.7623 20.111 21.3083 20.111C19.6224 20.111 18.1689 18.661 18.1689 16.9423H29.1164C29.5911 20.7998 32.6395 24.1265 36.8228 24.1265C38.6273 24.1265 40.2795 23.2515 41.2899 21.7742H41.3508V23.2814H46.8812V0H41.3508ZM18.3435 13.5648C18.6924 12.0861 19.8558 11.1195 21.3083 11.1195C22.9073 11.1195 24.0117 12.0562 24.3021 13.5648C24.4245 13.5648 18.3435 13.5648 18.3435 13.5648ZM37.9946 19.7369C35.956 19.7369 34.6892 17.8646 34.6892 15.9096C34.6892 13.8199 35.7911 11.8104 37.9946 11.8104C40.2795 11.8104 41.1897 13.8199 41.1897 15.9096C41.1894 17.8913 40.2249 19.7369 37.9946 19.7369Z" fill="#652C8F"/>
</g>
<defs>
<clipPath id="clip0_2_164">
<rect width="80" height="24" fill="white" transform="translate(0.5)"/>
</clipPath>
</defs>
</svg>

<svg xmlns="http://www.w3.org/2000/svg" width="81" height="24" fill="none"><g clip-path="url(#a)"><path fill="#F60" d="m59.991 23.282 6.672-7.39-6.672-7.39h7.04l3.304 3.59 3.182-3.59h6.793l-6.64 7.36 6.731 7.42h-7.068l-3.274-3.62-3.244 3.62h-6.824ZM59.991 5.19h-7.556v3.312h7.556v4.993h-7.556v4.583h7.556v5.204h-13.11V0h13.11v5.19Z"/><path fill="#652C8F" d="M41.35 0v9.528h-.06c-1.224-1.387-2.754-1.87-4.53-1.87-3.635 0-6.374 2.437-7.335 5.658-1.097-3.549-3.924-5.724-8.117-5.724-3.404 0-6.093 1.507-7.496 3.962V8.503H6.774V5.19h7.68V0H.5v23.282h6.274v-9.787h6.253a9.148 9.148 0 0 0-.286 2.301c0 4.857 3.764 8.264 8.567 8.264 4.04 0 6.702-1.869 8.11-5.277H24.04c-.727 1.024-1.279 1.328-2.733 1.328-1.686 0-3.14-1.45-3.14-3.169h10.948c.475 3.858 3.523 7.184 7.707 7.184a5.38 5.38 0 0 0 4.467-2.352h.06v1.507h5.531V0h-5.53ZM18.344 13.565c.35-1.479 1.513-2.445 2.965-2.445 1.6 0 2.704.936 2.994 2.445h-5.959Zm19.652 6.172c-2.039 0-3.306-1.872-3.306-3.827 0-2.09 1.102-4.1 3.306-4.1 2.285 0 3.195 2.01 3.195 4.1 0 1.981-.965 3.827-3.195 3.827Z"/></g><defs><clipPath id="a"><path fill="#fff" d="M.5 0h80v24H.5z"/></clipPath></defs></svg>
